X:200
T:B200-  How Lovely's a Woman
Q:1/4=120
L:1/4
M:6/4
K:G
d|efgfdB|cdeA2B/2B/2|cdefga|d3/2e/2^cd2e/2f/2|\
g3/2f/2edBG|cBA=f2A/2B/2|cdedBc|A3/2G/2FG2|]

